storage/app/icons/phosphoricons/regular/user-square.svg

<svg xmlns="http://www.w3.org/2000/svg" fill="currentColor" viewBox="0 0 256 256"><path d="M208 32H48a16 16 0 0 0-16 16v160a16 16 0 0 0 16 16h160a16 16 0 0 0 16-16V48a16 16 0 0 0-16-16M96 120a32 32 0 1 1 32 32 32 32 0 0 1-32-32m-27.33 88a64.36 64.36 0 0 1 19.13-25.8 64 64 0 0 1 80.4 0 64.36 64.36 0 0 1 19.13 25.8ZM208 208h-3.67a79.9 79.9 0 0 0-46.68-50.29 48 48 0 1 0-59.3 0A79.9 79.9 0 0 0 51.67 208H48V48h160z"/></svg>

<svg xmlns="http://www.w3.org/2000/svg" viewBox="0 0 256 256" fill="currentColor"><path d="M208,32H48A16,16,0,0,0,32,48V208a16,16,0,0,0,16,16H208a16,16,0,0,0,16-16V48A16,16,0,0,0,208,32ZM96,120a32,32,0,1,1,32,32A32,32,0,0,1,96,120ZM68.67,208A64.36,64.36,0,0,1,87.8,182.2a64,64,0,0,1,80.4,0A64.36,64.36,0,0,1,187.33,208ZM208,208h-3.67a79.9,79.9,0,0,0-46.68-50.29,48,48,0,1,0-59.3,0A79.9,79.9,0,0,0,51.67,208H48V48H208V208Z"/></svg>
